X:1
T:Title
%%score { ( 1 3 ) | ( 2 4 ) }
L:1/8
Q:1/4=100
M:4/4
K:Bb
V:1 treble nm="Grand Piano"
V:3 treble 
V:2 bass 
V:4 bass 
V:1
 [B,D]2 [B,D]>[CE] [DF]2 [DF]>[EG] | [DF]4 [DB]4 | d2 d>c [FB]2 [Fd]2 | c8[K:bass] | %4
w: M.~L.~McPhail * * * * *||||
 D2 D>[K:treble]E [DF]2 [EG]2 | [DF]4 [DB]2 d2 | [_Af]2 f>e d2 c2 | [DB]8 | %8
w: ||||
 [FA]2 [FA]>[GB] [Ac]2 [Ac]>d | [FAc]4 [CAf]4 | [FAc]2 [Ac]>d [FAc]2 [=EGB]2 | A8 | %12
w: ||||
 A2 A>B [FAc]2 [FBd]2 | [FAc]4 [CAf]4 | [CFc]2 [CFc]>[DGB] [CFA]2 [B,=EG]2 | [A,F]6 [A,E]2 | %16
w: ||||
 [B,D]2 [B,D]>[CE] [DF]2 [DF]>[EG] | [DF]4 [DB]4 | d2 d>c [FB]2 [Fd]2 | c8[K:bass] | %20
w: ||||
 D2 D>[K:treble]E [DF]2 [EG]2 | [DF]4 [DB]2 d2 | [_Af]2 f>e d2 c2 |[M:8/4] [DB]8 z8 |] %24
w: ||||
V:2
 [B,,F,]2 [B,,F,]2 [B,,B,]2 [B,,B,]2 | [B,,B,]4 [B,,F,]4 | %2
 [B,F]2 [F,A,F]2[K:bass] [D,B,]2 [B,,B,]2 | [A,F]8 | z2 B,2 z4 | [B,,B,]4 B,,2- [B,,B,F]2 | %6
 [D,B,]2 [E,B,]2 [F,B,F]2 [F,A,E]2 | [B,,B,]8 | [F,C]2 [F,C]2[K:treble] [F,F]2 z z/ B/ | %9
 F,2 C,2 A,,2 F,,2 | C,2 z z/[K:treble] B/[K:bass] C,2 C,2 | z2 C2 A,2 z2 | %12
 [F,CF]2 F>G[K:bass] F,2 F,2 | F,2 C,2 A,,2 F,,2 | A,,2 A,,>B,, C,2 C,2 | F,2 E,2 D,2 [C,F,]2 | %16
 [B,,F,]2 [B,,F,]2 [B,,B,]2 [B,,B,]2 | [B,,B,]4 [B,,F,]4 | %18
 [B,F]2 [F,A,F]2[K:bass] [D,B,]2 [B,,B,]2 | [A,F]8 | z2 B,2 z4 | [B,,B,]4 B,,2- [B,,B,F]2 | %22
 [D,B,]2 [E,B,]2 [F,B,F]2 [F,A,E]2 |[M:8/4] [B,,B,]8 z8 |] %24
V:3
 x8 | x8 | x8 | z2[K:bass] E,2 D,2 C,2 | x7/2[K:treble] x9/2 | x8 | z2 G2 z4 | x8 | x8 | x8 | x8 | %11
 F2 z2 z2 F2 | x8 | x8 | x8 | x8 | x8 | x8 | x8 | z2[K:bass] E,2 D,2 C,2 | x7/2[K:treble] x9/2 | %21
 x8 | z2 G2 z4 |[M:8/4] x16 |] %24
V:4
 x8 | x8 | x4[K:bass] x4 | F,2 z2 z4 | [B,,F,B,]2 [B,,F,]->[B,,F,C] [B,,B,]2 [B,,B,]2 | z4 F,2 z2 | %6
 x8 | x8 | z4[K:treble] z2 [F,F]2 | x8 | z2 [C,C]2[K:treble][K:bass] z4 | F,8 | %12
 z2 [F,C]2[K:bass] z4 | x8 | x8 | x8 | x8 | x8 | x4[K:bass] x4 | F,2 z2 z4 | %20
 [B,,F,B,]2 [B,,F,]->[B,,F,C] [B,,B,]2 [B,,B,]2 | z4 F,2 z2 | x8 |[M:8/4] x16 |] %24

